X:1
T:The Earth Belongs to the Lord
T:The Earth Belongs to the Lord
T:Hal Harold Hopson
T:Hal Harold Hopson, 1986
T:© 1986 Hope Publishing Company
T:© 1986 Hope Publishing Company
C:Hal Harold Hopson
Z:© 1986 Hope Publishing Company
%%score 1 ( 2 3 ) ( 4 5 )
L:1/8
Q:1/4=115
M:2/2
K:D
V:1 treble 
V:2 treble 
V:3 treble 
V:4 bass 
V:5 bass 
V:1
 z2"^Refrain (In unison)" A4 D2 x2 | (BA) G4 D2 | A2 D2 A2 B2 | =c4 B2 G2 | A6 D2!fine! | %5
w: ~ ~|~ * ~ ~|~ ~ ~ ~|~ ~ ~|~ 1.~The|
w: Sing, be-|liev- * ers! Give|thanks for those whose|joy is the|Lord. 2.~O|
w: ~ ~|~ * ~ ~|~ ~ ~ ~|~ ~ ~|~ 3.~O|
w: ~ ~|~ * ~ ~|~ ~ ~ ~|~ ~ ~|~ 4.~O|
 F2 D2 G2 EG | A6 (DD) x4 | =c3 c B2 G2 x | E4- E2 (EE) | F2 D2 G2 (EG) | A6 D2 x4 | B2 d2 c2 B2 | %12
w: earth be- longs to the|Lord, And *|all that we en-|joy, * A *|strong found- a- tion~was *|laid, Was|laid with- in the|
w: tell us, who shall as-|cend? Who~shall *|go up to God’s|house? * It~is *|those who love the *|Lord, Who|make God’s will their|
w: tell us, who are these|saints, These *|saints who praise God’s|name? * It~is *|those whose hearts are *|clean, Whose|joy is in the|
w: come, and praise th- e|Lord, And *|serve the world God|made, * Whose *|love is ev- er *|sure: O|praise God’s ho- ly|
 A8 x4!D.C.! |] %13
w: seas.|
w: own.|
w: Lord.|
w: name.|
V:2
 z2 A4 D2 D2 | ([=CEGB][DFA]) [CEG]4 [A,D]2 | [DEA]2 D2 A2 B2 | [A=c]4 B2 G2 | [DEA]6 D2 | %5
 F2 D2 G2 EG | A6 [EF]4 (DD) | =c3 z c B2 G2 | E4- E2 [A,E]2 | F2 D2 G2 (EG) | A6 [EF]4 D2 | %11
 B2 d2 c2 B2 | A8 [CE]4 |] %13
V:3
 x2 F2 D4 x2 | x8 | x4 [DF]4 | =F2 E2 D4 | x8 | A,4 =C4 | E2 x10 | =F2 (E2 D4) x | %8
 (ED=CB, CB,) x2 | B,4 =C4 | E2 x10 | [DG]8 | [B,DE-]4 x8 |] %13
V:4
 D,4 [E,G,A,]4 x2 | [A,,E,]4 =C,4 | [D,F,]4 [B,,F,A,]4 | [=F,,=C,A,]4 [G,,E,B,]4 | [D,,F,A,]6 z2 | %5
 D,4 [A,,E,]4 | F,8 x4 | [=F,,A,]4 [G,,B,]4 x | [=C,G,]4- [C,G,]2 C,2 | D,4 [A,,E,]4 | F,8 x4 | %11
 E,8 | E,4 A,4 x4 |] %13
V:5
 x10 | x8 | x8 | x8 | x8 | D,4 x4 | D,4 C,2 B,,2 x4 | x9 | x6 =C,2 | D,4 x4 | (D,4 C,2) B,,2 x4 | %11
 G,,4 E,,4 | A,,8 x4 |] %13

